X: 20479
T: John Kelly's
R: reel
M: 4/4
K: Gmajor
DE|G2 G2 GABG|AGEG GABd|d2gd edBd|d2ed dBAE|
G2 G2 GABG|AGEG GABd|d2gd edBG|1 A2 G2 GE:|2 A2 G2 A||
Bd|e3e edBd|d3d dBAB|c3A B2dB|BAAG AGEG|
G2 G2 GABG|AGEG GABd|d2gd edBG|1 A2 G2 GA:|2 A2 G2 2||

